**kern	**kern	**dynam
*part1	*part1	*part1
*staff2	*staff1	*staff1
*IPiano	*IPiano	*IPiano
*clefF4	*clefG2	*clefG2
*k[]	*k[]	*k[]
*M6/4	*M6/4	*M6/4
=1	=1	=1
!Tempo Marking: Profondement calme ( dans une brume doucement sonore)	!Tempo Marking: Profondement calme ( dans une brume doucement sonore)	!Tempo Marking: Profondement calme ( dans une brume doucement sonore)
*^	*^	*
*	*	*8va	*	*
4r	[1.GGG [1.DD [1.GG	1.ddd 1.ggg 1.dddd	4r	pp
*	*	*X8va	*	*
(>4D 4G	.	.	(<4d 4g 4dd	.
4E 4A	.	.	4e 4a 4ee	.
4B 4e	.	.	4b 4ee 4bb	.
4d 4g	.	.	4dd 4gg 4ddd	.
4e) 4a	.	.	4ee) 4aa 4eee	.
*	*	*v	*v	*
=2	=2	=2	=2
4r	1.GGG] 1.DD] 1.GG]	1.r	.
(>4DD'	.	.	.
[4GGG'	.	.	.
4GGG]	.	.	.
2DD~)	.	.	.
=3	=3	=3	=3
*	*	*^	*
*	*	*8va	*	*
4r	[1.AAA [1.EE [1.AA	1.ddd 1.ggg 1.dddd	4r	.
*	*	*X8va	*	*
(>4D 4G	.	.	(<4d 4g 4dd	.
4E 4A	.	.	4e 4a 4ee	.
4B 4e	.	.	4b 4ee 4bb	.
4d 4g	.	.	4dd 4gg 4ddd	.
4e) 4a	.	.	4ee) 4aa 4eee	.
*	*	*v	*v	*
=4	=4	=4	=4
4r	1.AAA] 1.EE] 1.AA]	1.r	.
(>4CC'	.	.	.
[4FFF'	.	.	.
4FFF]	.	.	.
2CC~)	.	.	.
=5	=5	=5	=5
*	*	*^	*
*	*	*8va	*	*
4r	1.EEE 1.BBB 1.EE	1.ddd 1.ggg 1.dddd	4r	.
*	*	*X8va	*	*
(>4D 4G	.	.	(<4d 4g 4dd	.
4E 4A	.	.	4e 4a 4ee	.
4B 4e	.	.	4b 4ee 4bb	.
*clefG2	*	*	*	*
4d 4g	.	.	4dd 4gg 4ddd	.
[4e	.	.	[4ee [4eee	.
*v	*v	*	*	*
*	*v	*v	*
=6	=6	=6
4e]	4ee] 4eee]	.
[2e~	[2ee~ [2eee	.
4e]	4ee] 4eee]	.
[2e~)	[2ee~) [2eee	.
=7	=7	=7
*^	*^	*
!	!	!	!Expression: Doux et fluide	!
(>2e]	2ryy	(>2ee] 2eee]	2ryy	.
2e	1e~	1ee~ 1eee	2eee	.
[2c# 2cc#	.	.	[2ccc#	.
=8	=8	=8	=8	=8
2c#X]	1e~	1ee~ 1eee	2ccc#X]	.
2d# 2dd#	.	.	2ddd#	.
2g#	2ryy	2ryy	2gg# 2ggg#	.
=9	=9	=9	=9	=9
2e	1e~	2eee	1ee~ 1eee	.
2c# 2cc#	.	2ccc#	.	.
[2G# [2g#	[2e~	[2ee~ [2eee	[2gg#	.
=10	=10	=10	=10	=10
2G#X] 2g#X]	2e]	2ee] 2eee]	2gg#X]	.
2A# 2a#	1e	1ee~ 1eee	2aa#	.
2d#) 2dd#	.	.	2ddd#)	.
=11	=11	=11	=11	=11
2B 2b	1e~	2bb	1ee~ 1eee	<
2G# 2g#	.	2gg#	.	.
2A# 2a#	[2e~	2aa#	[2ee~ [2eee	.
=12	=12	=12	=12	=12
2d# 2dd#	2e]	2ddd#	2ee] 2eee]	[
2c# 2cc#	1e~	2ccc#	1ee~ 1eee	>
2d# 2dd#	.	2ddd#	.	.
*	*	*v	*v	*
=13	=13	=13	=13
*	*^	*	*
4r	(<1B 1e 1b	2ryy	1ee 1bb 1eee	]pp
4r	.	.	.	.
*clefF4	*	*	*	*
4ryy	.	[4EEE\ [4EE	.	.
2.BB~	.	4EEE\] 4EE]	.	.
.	2r)	2DDD\ 2DD	2ryy	.
*v	*v	*v	*	*
=14	=14	=14
*^	*^	*
*	*	*8va	*	*
4r	1.CCC 1.GGG 1.CC	1.bb 1.eee 1.bbb	4r	pp
*	*	*X8va	*	*
!	!	!	!Expression: (sans nuances)	!
(>4GG 4D 4A	.	.	(<4d 4g 4dd	.
[4AA [4E [4B	.	.	4e 4a 4ee	.
4AA] 4E] 4B]	.	.	4b 4ee 4bb	.
4GG 4D 4A	.	.	4dd 4gg 4ddd	.
[4AA) [4E [4B	.	.	4ee 4aa 4eee	.
*	*	*v	*v	*
=15	=15	=15	=15
4AA] 4E] 4B]	1.CCC 1.GGG 1.CC	4bb 4eee 4bbb	.
(>4GG 4D 4A	.	4ee 4aa 4eee	.
[4AA [4E [4B	.	4dd 4gg 4ddd	.
4AA] 4E] 4B]	.	4b 4ee 4bb	.
4GG 4D 4A	.	4e 4a 4ee	.
4AA) 4E 4B	.	4d) 4g 4dd	.
=16	=16	=16	=16
*	*	*clefF4	*
*	*^	*	*
(>12BBBL	1.BBBB	2.ryy	4r	.
12FF#	.	.	.	.
12BBBJ	.	.	.	.
!	!	!	!	!Dynamic Expression: sempre
12FF#L	.	.	(>4D# 4B 4d# 4f#	pp
12BBB	.	.	.	.
12FF#J	.	.	.	.
12BBBL	.	.	4F# 4c# 4d# 4g#	.
12FF#	.	.	.	.
12F#J	.	.	.	.
*	*	*	*clefG2	*
12G#\L	.	4B	4d# 4f#X 4b 4dd#X	.
12F#\	.	.	.	.
[12BB\J	.	.	.	.
*	*	*	*clefF4	*
12BB\L]	.	2ryy	4F# 4c# 4d# 4g#	.
12FF#\	.	.	.	.
12BBB\J	.	.	.	.
12FF#\L	.	.	4D#) 4B 4d# 4f#	.
12BBB\	.	.	.	.
12FF#\J)	.	.	.	.
*	*	*	*clefG2	*
=17	=17	=17	=17	=17
!	!	!	!Expression: marque	!
*	*	*	*^	*
1.F#~ 1.G# 1.B 1.f# 1.g#	12r	2.ryy	1.ff#~ 1.gg# 1.ddd# 1.ggg#	4r	p
*	*	*	*clefF4	*	*
.	(>12BBBBL	.	.	.	.
.	12BBBJ	.	.	.	.
.	12FF#L	.	.	(<4D# 4B 4d# 4f#	pp
.	12BBB	.	.	.	.
.	12FF#J	.	.	.	.
.	12BBBL	.	.	4F# 4c# 4d# 4g#	.
.	12FF#	.	.	.	.
.	12F#J	.	.	.	.
*	*	*	*clefG2	*	*
.	12G#\L	4B		.	4d#X 4f#X 4b 4dd#	.
.	12F#\	.	.	.	.
.	[12BB\J	.	.	.	.
*	*	*	*clefF4	*	*
.	12BB\L]	2ryy		.	4F# 4c# 4d# 4g#	.
.	12FF#\	.	.	.	.
.	12BBB\J	.	.	.	.
.	12FF#\L	.	.	4D#) 4B 4d# 4f#	.
.	12BBB\	.	.	.	.
.	12FF#\J)	.	.	.	.
=18	=18	=18	=18	=18	=18
*	*	*	*clefG2	*	*
!	!	!	!Expression: marque	!	!
1.F#~ 1.G# 1.B 1.f# 1.g#	12r	2.ryy	1.ff#~ 1.gg# 1.ddd# 1.ggg#	4r	p
.	(>12BBBBL	.	.	.	.
.	12BBBJ	.	.	.	.
*	*	*	*clefF4	*	*
.	12FF#XL	.	.	(<4D# 4B 4d# 4f#	pp
.	12BBB	.	.	.	.
.	12FF#J	.	.	.	.
.	12BBBL	.	.	4D# 4c# 4d# 4g#	.
.	12FF#	.	.	.	.
.	12F#J	.	.	.	.
*	*	*	*clefG2	*	*
.	12G#\L	4B	.	4d#X) 4f#X 4b 4dd#	.
.	12F#\)	.	.	.	.
.	(<[12BB\J	.	.	.	.
*	*	*	*clefF4	*	*
.	12BB\L]	2ryy	.	(<4D# 4B 4d# 4f#	.
.	12FF#\	.	.	.	.
.	12BBB\J	.	.	.	.
.	12FF#\L	.	.	4F 4c# 4d# 4g#	.
.	12BBB\	.	.	.	.
.	12FF#\J)	.	.	.	.
=19	=19	=19	=19	=19	=19
*	*	*	*clefG2	*	*
1.EEE-X	(>12EEE-L	2.ryy	1.ee-) 1.bb- 1.eee-	4r	p
.	12EE-	.	.	.	.
.	[12BB-J	.	.	.	.
.	12BB-L]	.	.	(>4B- 4fn 4gn 4b-	.
.	12BB-	.	.	.	.
.	[12E-J	.	.	.	.
.	12E-L]	.	.	4c 4e- 4g 4cc	.
.	12E-	.	.	.	.
.	12B-J)	.	.	.	.
!	!	!Expression: marque	!	!	!
.	(>16dLL	(<4E-~\ 4G	.	4f) 4g 4b- 4ff	.
.	16cJ	.	.	.	.
.	8B-J)	.	.	.	.
.	12r	2r	.	(>4B- 4f 4g 4b-	.
.	12BB-L	.	.	.	.
.	[12EE-J	.	.	.	.
.	12EE-L]	.	.	4c 4e- 4g 4cc	.
.	12BBB-	.	.	.	.
.	[12EEE-J)	.	.	.	.
*	*	*	*v	*v	*
=20	=20	=20	=20	=20
!Tempo Marking: Augmentez progressivement (Sans presser)	!Tempo Marking: Augmentez progressivement (Sans presser)	!Tempo Marking: Augmentez progressivement (Sans presser)	!Tempo Marking: Augmentez progressivement (Sans presser)	!Tempo Marking: Augmentez progressivement (Sans presser)
(>24f~LL	(<4G 4B-	1EEE-]	4g) 4b- 4ee- 4gg	.
24e-	.	.	.	.
24dJ	.	.	.	.
8cJ)	.	.	.	.
12r	2ryy	.	(<4B- 4f 4g 4b-	.
12E-L	.	.	.	.
[12BB-J	.	.	.	.
12BB-L]	.	.	4c 4e- 4g 4cc	.
12EE-	.	.	.	.
12BBB-J)	.	.	.	.
(<8qEEE-/	.	.	.	.
(16d~LL)	(<4G 4B-	.	4f) 4g 4b- 4ff	.
16cJ	.	.	.	.
8B-J)	.	.	.	.
12r	2ryy	2ryy	(<4B- 4f 4g 4b-	.
12BB-L	.	.	.	.
[12EE-J	.	.	.	.
12EE-L]	.	.	4c 4e- 4g 4cc	.
12BBB-	.	.	.	.
12EEE-J)	.	.	.	.
*	*v	*v	*	*
=21	=21	=21	=21
(>16FLL 16f	4G 4B-	4g) 4b- 4gg	.
16E- 16e-	.	.	.
16D 16d	.	.	.
16CJJ 16c	.	.	.
12r	4ryy	(<4B- 4f 4g 4b-	.
12BB-L 12B-	.	.	.
[12EE-J [12E-	.	.	.
12EE-L] 12E-]	4ryy	4c 4e- 4g 4cc	.
12BBB- 12BB-	.	.	.
12EEE-J) 12EE-	.	.	.
(>16FLL 16f	4G 4B-	4g) 4b- 4gg	.
16E- 16e-	.	.	.
16D 16d	.	.	.
16CJJ 16c	.	.	.
12r	2ryy	4B- 4f 4g 4b-	.
12BB-L 12B-	.	.	.
[12EE-J [12E-	.	.	.
12EE-L] 12E-]	.	4c 4e- 4g 4cc	.
12BBB- 12BB-	.	.	.
12EEE-J) 12EE-	.	.	.
=22	=22	=22	=22
*	*^	*^	*
*	*	*	*	*^	*
2r	2ryy	1.GGG 1.DD 1.GG	1.gg 1.ddd 1.ggg	2r	2ryy	.
1c 1d	(<2G~	.	.	1cc 1dd	(>2g~/ 2gg	.
.	2A~	.	.	.	2a~/ 2aa	.
*v	*v	*v	*	*	*	*
=23	=23	=23	=23	=23
*clefG2	*	*	*	*
*^	*	*	*	*
2f 2g 2a 2cc	2d~)	1.dd~) 1.gg 1.ccc 1.ddd	2.r	2ryy	.
1c 1d 1f	(<2G 2g	.	.	2ryy	.
*	*	*	*8va	*	*
.	.	.	(>4ddd~ 4dddd	.	.
.	2A 2a	.	4ccc~ 4cccc	2fff\ 2aaa	.
.	.	.	4bb~ 4bbb	.	.
*	*	*	*v	*v	*
=24	=24	=24	=24	=24
2g 2a 2cc 2dd	2d) 2f	4aa~ 4aaa	1ddd 1fff	.
.	.	4bb~ 4bbb	.	.
1c 1d 1f	(<2G 2g	4aa~ 4aaa	.	.
.	.	4gg~ 4ggg	.	.
.	2A 2a	4ff~ 4fff	2ryy	.
.	.	4ee~ 4eee	.	.
*v	*v	*	*	*
=25	=25	=25	=25
2d) 2f 2g 2a 2cc	2dd~) 2aa 2ddd	2ryy	.
*	*	*X8va	*
!	!	!	!Dynamic Expression: piu
4r	(>2G 2g	1A 1d 1f	f
*clefF4	*	*	*
(>4DD~ 4D	.	.	.
4CC~ 4C	2A 2a	.	.
4BBB~ 4BB	.	.	.
=26	=26	=26	=26
4AAA~ 4AA	2a) 2dd	2c 2d 2f 2g	.
4BBB~ 4BB	.	.	.
4AAA~ 4AA	(>2G 2g	1A 1c 1d 1f	.
4GGG~ 4GG	.	.	.
4FFF~ 4FF	2A 2a	.	.
4EEE~) 4EE	.	.	.
=27	=27	=27	=27
(<4DDD~ 4DD	2a) 2dd	2c 2d 2f 2g	.
4CC~ 4C	.	.	.
4AAA~ 4AA	2r	1ryy	.
4GGG~ 4GG	.	.	.
*	*clefF4	*	*
4FFF~ 4FF	2GG~	.	sff
4DDD~) 4DD	.	.	.
*	*v	*v	*
=28	=28	=28
*^	*	*
*	*8ba	*	*
2r	[1.CCC~^^	2r	.
*	*	*clefG2	*
*	*X8ba	*	*
!	!	!Expression: Sonore sans durete	!
(>2GG 2C 2E 2G	.	(>2c 2e 2g 2cc	ff
2AA 2D 2F 2A	.	2d 2f 2a 2dd	.
=29	=29	=29	=29
2.D 2.G 2.B 2.d	1.CC_	2.g 2.b 2.dd 2.gg	.
4C 4F 4A 4c	.	4f 4a 4cc 4ff	.
4BB 4E 4G 4B	.	4e 4g 4b 4ee	.
4AA 4D 4F 4A	.	4d 4f 4a 4dd	.
=30	=30	=30	=30
2AA 2D 2F 2A	1.CC_	2d 2f 2a 2dd	.
2EE 2AA 2C 2E	.	2A 2c 2e 2a	.
[2BB [2E [2G [2B	.	[2e [2g [2b [2ee	.
=31	=31	=31	=31
4BB] 4E] 4G] 4B]	1.CC_	4e] 4g] 4b] 4ee]	.
4C 4F 4A 4c	.	4f 4a 4cc 4ff	.
2.AA 2.D 2.F 2.A	.	2.d 2.f 2.a 2.dd	.
4GG 4C 4E 4G	.	4c 4e 4g 4cc	.
=32	=32	=32	=32
1GG) 1C 1E 1G	2CC]	1c) 1e 1g 1cc	.
*	*8ba	*	*
.	[1CCC	.	.
(>2EEE 2AAA 2CC 2EE	.	(>2A 2c 2e 2a	.
=33	=33	=33	=33
2FF 2BB- 2D 2F	1.CC_	2B- 2d 2f 2b-	.
2AA 2D 2F 2A	.	2d 2f 2a 2dd	.
2C 2F 2A 2c	.	2f 2a 2cc 2ff	.
=34	=34	=34	=34
1GG) 1C 1E 1G	2CC]	1c) 1e 1g 1cc	.
*	*X8ba	*	*
*	*8ba	*	*
.	[1CCC	.	.
(>2EEE 2AAA 2CC 2EE	.	(>2A 2c 2e 2a	.
=35	=35	=35	=35
2FF 2BB- 2D 2F	1.CC_	2B- 2d 2f 2b-	.
2AA 2D 2F 2A	.	2d 2f 2a 2dd	.
2C 2F 2A 2c	.	2f 2a 2cc 2ff	.
=36	=36	=36	=36
2.D 2.G 2.B- 2.d	2CC]	2.g 2.b- 2.dd 2.gg	<
*	*X8ba	*	*
*	*8ba	*	*
.	[1CCC	.	.
4CC 4FF 4AA 4C	.	4f 4a 4cc 4ff	.
4D 4G 4B- 4d	.	4g 4b- 4dd 4gg	.
4F 4B- 4d 4f	.	4b- 4dd 4ff 4bb-	.
=37	=37	=37	=37
1D 1G 1B- 1d	2CC]	1g 1b- 1dd 1gg	.
*	*X8ba	*	*
*	*8ba	*	*
.	[1CCC	.	.
2EE 2AA 2C 2E	.	2a 2cc 2ee 2aa	.
=38	=38	=38	=38
1C) 1F 1A 1c	2CC]	1f) 1a 1cc 1ff	[
*	*X8ba	*	*
*	*8ba	*	*
.	[1CCC	.	.
(>[2CC [2FF [2AA [2C	.	(>[2f [2a [2cc [2ff	>
=39	=39	=39	=39
2C] 2F] 2A] 2c]	1.CC_	2f] 2a] 2cc] 2ff]	.
2AA 2D 2F 2A	.	2d 2f 2a 2dd	.
2BB 2E 2G 2B	.	2e 2g 2b 2ee	.
=40	=40	=40	=40
*	*	*^	*
[1.GG) [1.C [1.E [1.G	2CC]	[1.c) [1.e [1.g [1.cc	2rcyy	.
*	*X8ba	*	*	*
*	*8ba	*	*	*
.	[1CCC	.	2c~^^	]
.	.	.	2d~^^	.
=41	=41	=41	=41	=41
1.GG] 1.C] 1.E] 1.G]	1CC]	1.c] 1.e] 1.g] 1.cc]	2g~^^	.
*	*X8ba	*	*	*
.	.	.	2cc~^^	>
.	2ryy	.	2dd~^^	.
=42	=42	=42	=42	=42
1.G 1.c 1.d	2r	1.g 1.cc 1.dd 1.gg	2rggg	]p
*	*	*	*8va	*
.	[2BBB-~ [2BB-	.	[2ccc~ [2ddd [2cccc [2dddd	.
.	4BBB-] 4BB-]	.	4ccc] 4ddd] 4cccc] 4dddd]	.
*	*	*	*X8va	*
.	4r	.	4r	.
=43	=43	=43	=43	=43
!	!	!	!	!Dynamic Expression: piu
1.G 1.c 1.d	2r	1.g 1.cc 1.dd 1.gg	2rggg	p
*	*	*	*8va	*
.	[2BBB-~ [2BB-	.	[2ccc~ [2ddd [2cccc [2dddd	.
.	4BBB-] 4BB-]	.	4ccc] 4ddd] 4cccc] 4dddd]	.
*	*	*	*X8va	*
.	4r	.	4r	.
=44	=44	=44	=44	=44
1.G 1.c 1.d	2r	1.g 1.cc 1.dd 1.gg	2rggg	pp
*	*	*	*8va	*
.	[2AAA-~ [2AA-	.	[2ccc~ [2ddd [2cccc [2dddd	.
.	4AAA-] 4AA-]	.	4ccc] 4ddd] 4cccc] 4dddd]	.
*	*	*	*X8va	*
.	4r	.	4r	.
=45	=45	=45	=45	=45
!	!	!	!	!Dynamic Expression: piu
1.G 1.c 1.d	2r	1.g 1.cc 1.dd 1.gg	2rggg	pp
*	*	*	*8va	*
.	[1AAA- [1AA-	.	[2ccc~ [2ddd [2cccc [2dddd	.
.	.	.	4ccc] 4ddd] 4cccc] 4dddd]	.
*	*	*	*X8va	*
.	.	.	4r	.
*v	*v	*	*	*
*	*v	*v	*
=46	=46	=46
2AAA-] 2AA-]	1.r	.
[1GGG#~ [1GG#	.	.
=47||	=47||	=47||
*	*clefF4	*
*k[f#c#g#d#]	*k[f#c#g#d#]	*
!Tempo Marking: Un peu moins lent (Dans une expression allant grandissant)	!Tempo Marking: Un peu moins lent (Dans une expression allant grandissant)	!Tempo Marking: Un peu moins lent (Dans une expression allant grandissant)
!	!Expression: expressif et concentre	!
1.GGG#_ 1.GG#_	(>1E	pp
.	[2C#	.
=48	=48	=48
1.GGG#_ 1.GG#_	2C#]	.
.	2D#	.
.	2G#	.
=49	=49	=49
*^	*	*
2GG#]	1.GGG#]	2E	.
1rEE	.	2C#	.
.	.	[2GG#	.
*v	*v	*	*
=50	=50	=50
[1.GGG#	2GG#]	.
.	2AA#	.
.	2D#	.
=51	=51	=51
*^	*^	*
1.GGG#_	2r	2BB)	2BB	.
.	(>2GG#	(>2G#	1E	<
.	2AA#X	2A#X	.	.
=52	=52	=52	=52	=52
1.GGG#]	2D#	2d#	1E 1G# 1A#X	.
.	2C#	2c#	.	.
.	2D#)	2d#	2ryy	.
=53	=53	=53	=53	=53
*	*^	*	*	*
[1.GGG#	2r	2ryy	2G#) 2B	2BB 2E	[
*	*	*	*clefG2	*	*
.	(<2G#	1e	(>2g# 2gg#	1ee	pp
.	2A#	.	2a# 2aa#	.	.
=54	=54	=54	=54	=54	=54
*	*clefG2	*	*	*	*
1.GGG#]	1e 1g# 1a#	2d#\	2dd# 2ddd#	1gg# 1aa#X	.
.	.	2c#\	2cc# 2ccc#	.	.
.	2ryy	2d#\)	2dd#) 2ddd#	2ryy	.
=55	=55	=55	=55	=55	=55
*clefF4	*	*	*	*	*
[1.GGG# [1.GG#	2ryy	2rBB	(<2ff# 2aan 2ccc# 2fff#	2ryy	pp
.	(<2C# 2c#	1F# 1A	(<2dd# 2ddd#	[1ff# [1aa	.
.	2D# 2d#	.	[2cc#) [2ccc#	.	.
=56	=56	=56	=56	=56	=56
1.GGG#] 1.GG#]	2F# 2A 2c# 2f#	2ryy	4cc#] 4ccc#]	2ff#] 2aa]	<
.	.	.	4dd# 4ddd#	.	.
.	2D# 2d#	1F# 1A 1c#	2ff# 2aa 2ccc# 2fff#	2ryy	.
.	2C#) 2c#	.	4dd# 4ddd#	2ff# 2aa	.
.	.	.	4ff#) 4fff#	.	.
=57	=57	=57	=57	=57	=57
1.GGG# 1.GG#	2ryy	2rGG	(<2gg# 2ccc# 2ggg#	2ryy	[p
.	(<2C# 2c#	1F# 1A	2dd# 2ddd#	[1ff# [1aa	<
.	2D# 2d#	.	[2cc# [2ccc#	.	.
*	*v	*v	*	*	*
=58	=58	=58	=58	=58
2G# 2A 2c# 2d# 2g#	2ryy	4cc#] 4ccc#]	2ff#] 2aa]	.
.	.	4dd# 4ddd#	.	.
2D# 2d#	1F# 1A 1c#	2gg# 2ccc# 2ggg#	2ryy	.
2C#) 2c#	.	4ff# 4fff#	2ddd#	.
.	.	4gg#) 4ggg#	.	.
*v	*v	*	*	*
=59	=59	=59	=59
(>[8qGGG#/	.	.	.
*^	*	*	*
*	*^	*	*	*
*	*	*	*8va	*	*
*clefF4	*clefG2	*	*	*	*
1.GGG#])	2c# 2d# 2f# 2a 2cc#	2ryy	(>2ccc# 2cccc#	2ddd# 2fff#	[f
.	2G# 2g#	1A 1c# 1d#	2gg# 2ggg#	1ccc# 1ddd#	.
.	2F# 2f#	.	2ff# 2fff#	.	.
*	*v	*v	*	*	*
=60	=60	=60	=60	=60
*clefG2	*	*	*	*
1B 1c# 1d# 1f# 1b	4rF	1bb 1ccc# 1ddd# 1bbb	1ryy	<
*	*clefF4	*	*	*
.	(>4GGG#	.	.	.
.	4GG#	.	.	.
.	4D#	.	.	.
2A 2c# 2d#	4F# 4f#	4ff# 4fff#	2ccc# 2ddd#	.
.	4A) 4a	4aa) 4aaa	.	.
=61	=61	=61	=61	=61
*	*^	*	*	*
*clefG2	*	*clefF4	*	*	*
.	.	(<[8qGGG#/	.	.	.
2c# 2d# 2f# 2a 2cc#	2ryy	1.GGG#]	(>2ccc# 2cccc#	2ddd# 2fff#	[ff
(2G# 2g#	1A) 1c# 1d#	.	2gg# 2ggg#	1ccc# 1ddd#	.
2F# 2f#	.	.	2ff# 2fff#	.	.
*	*v	*v	*	*	*
=62	=62	=62	=62	=62
2B 2b	1c# 1d# 1f#	2bb 2bbb	1ccc# 1ddd#	>
2F# 2f#)	.	2ff#) 2fff#	.	.
*	*	*X8va	*	*
!	!	!	!	!Dynamic Expression: molto dim.
*clefF4	*	*	*	*
(<2D#~ 2A#X 2c#	2ryy	(>2d#~ 2f##X 2a#X 2cc# 2dd#	2ryy	]
*v	*v	*	*	*
*	*v	*v	*
=63	=63	=63
2C#~ 2G# 2B	2c#~ 2e# 2g# 2b 2cc#	.
2BB~ 2F# 2An	2B~ 2d# 2f# 2an 2b	.
4AA~ 4E 4Gn	4A~ 4c# 4en 4gn 4a	.
4C#~ 4G# 4B	4c#~ 4e# 4g# 4b 4cc#	.
=64	=64	=64
1GG#~) 1D# 1F#	1G#~) 1B# 1d# 1f# 1g#	.
*	*clefF4	*
(<2DD# 2AA# 2C#	(>2D# 2F## 2A# 2c# 2d#	p
=65	=65	=65
*	*clefG2	*
1GG#) 1D# 1F#	1G#) 1B# 1d# 1f# 1g#	]
(>2C# 2G# 2Bn	(<2c# 2e# 2g# 2bn 2cc#	p
=66	=66	=66
*^	*	*
[1.GG#) [1.D# [1.F#	2rGG	[1.G#) [1.B# [1.d# [1.f# [1.g#	]
.	[1GGG#~	.	.
=67	=67	=67	=67
1.GG#] 1.D#] 1.F#]	2GGG#]	1.G#] 1.B#] 1.d#] 1.f#] 1.g#]	.
.	1GGG#~	.	.
*v	*v	*	*
=68	=68	=68
1.FFF#~ 1.GGG#	2r	.
*	*clefF4	*
.	1CCn~	.
=69	=69	=69
1.FFF#~ 1.GGG#	2r	.
.	[1CCn	.
=70	=70	=70
1.FFF#~ 1.GGG#	8CCnL]	pp
.	(>8DDn	.
.	8CC	.
.	8DDJ	.
.	8CCL	.
.	8DD	.
.	8CC	.
.	8DDJ	.
.	8CCL	.
.	8DD	.
.	8CC	.
.	8DDJ	.
=71	=71	=71
1.r	8CCnL	>
.	8DDn	.
.	8CC	.
.	8DDJ	.
.	8CCL	.
.	8DD	.
.	8CC	.
.	8DDJ	.
.	8CCL	.
.	8DD	.
.	8CC	.
.	8DDJ)	]]
=72||	=72||	=72||
*k[]	*k[]	*k[]
*8ba	*	*
!Tempo Marking: au Mouvt	!Tempo Marking: au Mouvt	!Tempo Marking: au Mouvt
!Expression: Flottant et sourd	!	!
(>8CCL	2r	]
8DD	.	.
8CC	.	.
8GGG	.	.
!	!Expression: Comme un echo de la phrase entendue precedemment	!
8CCC	(>2C 2E 2G 2c	pp
8GGGJ	.	.
8CCL	.	.
8DD	.	.
8CC	2D 2F 2A 2d	.
8GGG	.	.
8CCC	.	.
8GGG	.	.
=73	=73	=73
8CC	2.G 2.B 2.d 2.g	.
8DD	.	.
8CC	.	.
8GGG	.	.
8CCC	.	.
8GGG	.	.
8CC	4F 4A 4c 4f	.
8DD	.	.
8CC	4E 4G 4B 4e	.
8GGG	.	.
8CCC	4D 4F 4A 4d	.
8GGGJ)	.	.
=74	=74	=74
(>8CCL	2D 2F 2A 2d	.
8DD	.	.
8CC	.	.
8GGG	.	.
8CCC	2AA 2C 2E 2A	.
8GGG	.	.
8CC	.	.
8DD	.	.
8CC	[2E [2G [2B [2e	.
8GGG	.	.
8CCC	.	.
8GGGJ	.	.
=75	=75	=75
8CCL	4E] 4G] 4B] 4e]	.
8DD	.	.
8CC	4F 4A 4c 4f	.
8GGG	.	.
8CCC	2.D 2.F 2.A 2.d	.
8GGG	.	.
8CC	.	.
8DD	.	.
8CC	.	.
8GGG	.	.
8CCC	4C 4E 4G 4c	.
8GGGJ)	.	.
=76	=76	=76
(>8CCL	1C) 1E 1G 1c	.
8DD	.	.
8CC	.	.
8GGG	.	.
8CCC	.	.
8GGG	.	.
8CC	.	.
8DD	.	.
8CC	(>2AA 2C 2E 2A	.
8GGG	.	.
8CCC	.	.
8GGG	.	.
=77	=77	=77
8CC	2BB- 2D 2F 2B-	.
8DD	.	.
8CC	.	.
8GGG	.	.
8CCC	2D 2F 2A 2d	.
8GGG	.	.
8CC	.	.
8DD	.	.
8CC	2F 2A 2c 2f	.
8GGG	.	.
8CCC	.	.
8GGGJ)	.	.
=78	=78	=78
(>8CCL	1C) 1E 1G 1c	.
8DD	.	.
8CC	.	.
8GGG	.	.
8CCC	.	.
8GGG	.	.
8CC	.	.
8DD	.	.
8CC	(>2AA 2C 2E 2A	.
8GGG	.	.
8CCC	.	.
8GGG	.	.
=79	=79	=79
8CC	2BB- 2D 2F 2B-	.
8DD	.	.
8CC	.	.
8GGG	.	.
8CCC	2D 2F 2A 2d	.
8GGG	.	.
8CC	.	.
8DD	.	.
8CC	2F 2A 2c 2f	.
8GGG	.	.
8CCC	.	.
8GGGJ)	.	.
=80	=80	=80
(>8CCL	2.G 2.B- 2.d 2.g	.
8DD	.	.
8CC	.	.
8GGG	.	.
8CCC	.	.
8GGG	.	.
8CC	4F 4A 4c 4f	<
8DD	.	.
8CC	4G 4B- 4d 4g	.
8GGG	.	.
8CCC	4B- 4d 4f 4b-	.
8GGGJ	.	.
=81	=81	=81
8CCL	1G 1B- 1d 1g	[
8DD	.	.
8CC	.	.
8GGG	.	.
8CCC	.	.
8GGG	.	.
8CC	.	.
8DD	.	.
8CC	2A 2c 2e 2a	>
8GGG	.	.
8CCC	.	.
8GGGJ)	.	.
=82	=82	=82
(>8CCL	1.F) 1.A 1.c 1.f	]
8DD	.	.
8CC	.	.
8GGG	.	.
8CCC	.	.
8GGG	.	.
8CC	.	.
8DD	.	.
8CC	.	.
8GGG	.	.
8CCC	.	.
8GGG	.	.
=83	=83	=83
!	!	!Dynamic Expression: piu
8CC	(>2.D 2.F 2.A 2.d	pp
8DD	.	.
8CC	.	.
8GGG	.	.
8CCC	.	.
8GGG	.	.
8CC	2.E) 2.G 2.B 2.e	.
8DD	.	.
8CC	.	.
8GGG	.	.
8CCC	.	.
8GGGJ)	.	.
=84	=84	=84
!	!Expression: Dans la sonorite du debut	!
*	*clefG2	*
*^	*	*
1CCC	4rA	4r	.
*X8ba	*	*	*
.	(<4D 4G 4c	(>4d 4g 4cc 4dd	pp
.	4E 4A 4d	4e 4a 4dd 4ee	.
.	4B 4c 4g	4b 4cc 4ee 4bb	.
*clefG2	*	*	*
2ryy	4d 4g 4cc	4dd 4gg 4ccc 4ddd	.
.	4e) 4a 4dd	4ee) 4aa 4ddd 4eee	.
*clefF4	*	*	*
=85	=85	=85	=85
*	*	*^	*
*	*	*8va	*	*
4r	1CCC 1GGG 1CC	1.ggg 1.cccc 1.dddd 1.gggg	4r	.
*	*	*X8va	*	*
(4D 4G 4c	.	.	(<4d 4g 4cc 4dd	.
4E 4A 4d	.	.	4e 4a 4dd 4ee	.
4B 4c 4g	.	.	4b 4cc 4ee 4bb	.
*clefG2	*	*	*	*
4d 4g 4cc	2ryy	.	4dd 4gg 4ccc 4ddd	.
4e 4a 4dd)	.	.	4ee) 4aa 4ddd 4eee	.
*	*	*v	*v	*
*clefF4	*	*	*
=86	=86	=86	=86
*	*	*8va	*
(>2G 2c 2d 2g	1r	2ggg 2cccc 2dddd 2gggg	.
*	*	*X8va	*
1E) 1G 1c 1e	.	1g~ 1cc 1ee 1gg	.
.	2CCC 2GGG 2CC	.	.
=87	=87	=87	=87
*	*	*8va	*
(>2G 2c 2d 2g	1r	2ggg 2cccc 2dddd 2gggg	.
*	*	*X8va	*
[1E) [1G [1c [1e	.	[1g~ [1cc [1ee [1gg	.
.	[2CCC [2GGG [2CC	.	.
=88	=88	=88	=88
1.E_ 1.G_ 1.c_ 1.e_	1.CCC_ 1.GGG_ 1.CC_	1.g_ 1.cc_ 1.ee_ 1.gg_	.
=89	=89	=89	=89
4E] 4G] 4c] 4e]	4CCC] 4GGG] 4CC]	4g] 4cc] 4ee] 4gg]	.
4r	4r	4r	.
1r	1r	1r	.
*v	*v	*	*
==	==	==
*-	*-	*-
!!!system-decoration: {(s1,s2)}
!!!RDF**kern: > = above
!!!RDF**kern: < = below
